svg/icon/evry.svg

<?xml version="1.0" encoding="UTF-8"?>
<svg xmlns="http://www.w3.org/2000/svg" xmlns:xlink="http://www.w3.org/1999/xlink" width="32px" height="32px" viewBox="0 0 32 32" version="1.1">
<g id="surface1">
<path style=" stroke:none;fill-rule:nonzero;fill:rgb(0%,0%,0%);fill-opacity:1;" d="M 15.160156 5.351562 C 15.003906 5.394531 11.671875 7.117188 7.757812 9.179688 C 0.898438 12.796875 0.640625 12.941406 0.597656 13.367188 C 0.554688 13.75 0.625 13.820312 1.265625 14.164062 C 1.664062 14.363281 2.121094 14.519531 2.277344 14.519531 C 2.449219 14.519531 5.324219 13.066406 8.683594 11.300781 C 12.058594 9.539062 15.074219 8.027344 15.402344 7.957031 C 15.730469 7.871094 16.183594 7.859375 16.425781 7.914062 C 16.667969 7.957031 18.605469 8.898438 20.710938 9.992188 C 28.527344 14.0625 29.421875 14.519531 29.765625 14.519531 C 30.261719 14.519531 31.460938 13.738281 31.460938 13.410156 C 31.460938 13.265625 31.34375 13.039062 31.21875 12.925781 C 31.074219 12.8125 27.785156 11.058594 23.929688 9.054688 C 17.851562 5.894531 16.78125 5.378906 16.171875 5.339844 C 15.773438 5.308594 15.316406 5.324219 15.160156 5.351562 Z M 15.160156 5.351562 "/>
<path style=" stroke:none;fill-rule:nonzero;fill:rgb(0%,0%,0%);fill-opacity:1;" d="M 13.097656 11.644531 C 3.03125 16.882812 0.640625 18.191406 0.597656 18.535156 C 0.570312 18.734375 0.667969 18.976562 0.8125 19.089844 C 0.953125 19.21875 4.242188 20.96875 8.113281 22.988281 L 15.160156 26.675781 L 16.085938 26.675781 L 17.011719 26.691406 L 24.199219 22.890625 C 31.003906 19.300781 31.386719 19.074219 31.429688 18.691406 C 31.472656 18.320312 31.386719 18.234375 30.777344 17.894531 C 30.390625 17.679688 29.921875 17.507812 29.75 17.507812 C 29.578125 17.507812 26.621094 18.988281 23.175781 20.8125 C 16.925781 24.101562 16.898438 24.113281 16.058594 24.085938 C 15.261719 24.058594 14.960938 23.929688 10.917969 21.820312 C 5.664062 19.101562 5.550781 19.03125 5.550781 18.578125 C 5.550781 18.292969 5.695312 18.148438 6.261719 17.863281 C 6.648438 17.664062 7.132812 17.507812 7.332031 17.507812 C 7.53125 17.507812 9.339844 18.390625 11.34375 19.460938 C 14.945312 21.367188 15.03125 21.410156 15.941406 21.410156 L 16.867188 21.421875 L 21.59375 18.945312 C 24.355469 17.496094 26.363281 16.371094 26.40625 16.226562 C 26.449219 16.085938 26.449219 15.886719 26.40625 15.773438 C 26.363281 15.660156 25.125 14.945312 23.660156 14.191406 C 22.191406 13.4375 20.070312 12.328125 18.933594 11.730469 C 17.296875 10.859375 16.710938 10.632812 16.085938 10.578125 C 15.332031 10.503906 15.230469 10.535156 13.097656 11.644531 Z M 19.003906 14.421875 C 21.179688 15.53125 21.28125 15.601562 21.28125 16.015625 C 21.28125 16.425781 21.167969 16.5 19.074219 17.609375 C 17.054688 18.675781 16.796875 18.777344 16.027344 18.777344 C 15.261719 18.789062 15.03125 18.703125 13.109375 17.707031 C 10.761719 16.5 10.390625 16.214844 10.621094 15.828125 C 10.789062 15.558594 11.757812 14.988281 13.808594 13.9375 C 15.828125 12.910156 16.113281 12.925781 19.003906 14.421875 Z M 19.003906 14.421875 "/>
</g>
</svg>

<svg xmlns="http://www.w3.org/2000/svg" width="32" height="32" viewBox="0 0 32 32"><path d="M15.16 5.352c-.156.043-3.488 1.765-7.402 3.828C.898 12.797.64 12.94.598 13.367c-.043.383.027.453.668.797.398.2.855.356 1.011.356.172 0 3.047-1.454 6.407-3.22 3.375-1.76 6.39-3.273 6.718-3.343.328-.086.782-.098 1.024-.043.242.043 2.18.984 4.285 2.078 7.816 4.07 8.71 4.528 9.055 4.528.496 0 1.695-.782 1.695-1.11 0-.144-.117-.37-.242-.484-.145-.114-3.434-1.867-7.29-3.871-6.077-3.16-7.148-3.676-7.757-3.715-.399-.031-.856-.016-1.012.012m0 0" style="stroke:none;fill-rule:nonzero;fill:#000;fill-opacity:1"/><path d="M13.098 11.645C3.03 16.883.64 18.19.598 18.535c-.028.2.07.442.215.555.14.129 3.43 1.879 7.3 3.898l7.047 3.688h.926l.926.015 7.187-3.8c6.805-3.59 7.188-3.817 7.23-4.2.044-.37-.042-.457-.652-.796-.386-.215-.855-.387-1.027-.387s-3.129 1.48-6.574 3.305c-6.25 3.289-6.278 3.3-7.117 3.273-.797-.027-1.098-.156-5.141-2.266-5.254-2.718-5.367-2.789-5.367-3.242 0-.285.144-.43.71-.715.387-.199.872-.355 1.071-.355.2 0 2.008.883 4.012 1.953 3.601 1.906 3.687 1.95 4.597 1.95l.926.01 4.727-2.476c2.761-1.449 4.77-2.574 4.812-2.718a.8.8 0 0 0 0-.454c-.043-.113-1.281-.828-2.746-1.582a640 640 0 0 1-4.726-2.46c-1.637-.872-2.223-1.098-2.848-1.153-.754-.074-.856-.043-2.988 1.067m5.906 2.777c2.176 1.11 2.277 1.18 2.277 1.594 0 .41-.113.484-2.207 1.593-2.02 1.067-2.277 1.168-3.047 1.168-.765.012-.996-.074-2.918-1.07-2.347-1.207-2.718-1.492-2.488-1.879.168-.27 1.137-.84 3.188-1.89 2.02-1.028 2.304-1.012 5.195.484m0 0" style="stroke:none;fill-rule:nonzero;fill:#000;fill-opacity:1"/></svg>
